!!!COM: Frescobaldi, Girolamo
!!!CDT: 1583///-1643
!!!ONM: No. 33
!!!OTL: No. 33: Canzon Terza &agrave; 4. Due Canti e Due Bassi
!!!OPR: Canzoni da sonare a una, due, tre et quattro, libro primo
!!!PPP: Venezia
!!!PDT: 1634
!!!URL: http://icking-music-archive.org/ByComposer/Frescobaldi.html
!!!ONB: Andrea Friggi, ed.
**kern	**kern	**kern	**kern	**kern
!Basso ad Organo	!Basso Secondo	!Basso Primo	!Canto Secondo	!Canto Primo
*staff5	*staff4	*staff3	*staff2	*staff1
*Icello	*Icello	*Icello	*Ivioln	*Ivioln
*clefF4	*clefF4	*clefF4	*clefG2	*clefG2
*k[b-]	*k[b-]	*k[b-]	*k[b-]	*k[b-]
*met(C)	*met(C)	*met(C)	*met(C)	*met(C)
*M4/4	*M4/4	*M4/4	*M4/4	*M4/4
*MM120	*MM120	*MM120	*MM120	*MM120
=1-	=1-	=1-	=1-	=1-
1F	1r	1r	1r	2r
.	.	.	.	[2cc\
=2	=2	=2	=2	=2
2A\	1r	1r	1r	4cc\]
.	.	.	.	4cc\
2B-\	.	.	.	2dd\
=3	=3	=3	=3	=3
1G	1r	1r	1r	4b-\
.	.	.	.	4cc\
.	.	.	.	4dd\
.	.	.	.	4ee\
=4	=4	=4	=4	=4
2F\	1r	1r	1r	2ff\
2C/	.	.	.	[2ee\
=5	=5	=5	=5	=5
2D\	1r	1r	1r	4ee\]
.	.	.	.	8dd\L
.	.	.	.	8cc\J
2BB-/	.	.	.	[2dd\
=6	=6	=6	=6	=6
1FF#	1r	1r	1r	2dd\]
.	.	.	.	2cc\
=7	=7	=7	=7	=7
1GG	1r	1r	1r	2b-\
.	.	.	.	[2gg\
=8	=8	=8	=8	=8
2C#/	1r	1r	1r	4gg\]
.	.	.	.	8ff\L
.	.	.	.	8ee\J
2D\	.	.	.	[2ff\
=9	=9	=9	=9	=9
2BBn/	1r	1r	2r	2ff\]
2C/	.	.	[2cc\	2ee\
=10	=10	=10	=10	=10
1FF	1r	1r	4cc\]	1ff
.	.	.	4cc\	.
.	.	.	2dd\	.
=11	=11	=11	=11	=11
1GG	1r	1r	4b-\	1r
.	.	.	4cc\	.
.	.	.	4dd\	.
.	.	.	4ee\	.
=12	=12	=12	=12	=12
2D\	1r	1r	2ff\	1r
2C/	.	.	[2ee\	.
=13	=13	=13	=13	=13
1F	1r	1r	4ee\]	1r
.	.	.	8dd\L	.
.	.	.	8cc\J	.
.	.	.	2dd\	.
=14	=14	=14	=14	=14
1E	1r	1r	2.gg\	1r
.	.	.	4aa\	.
=15	=15	=15	=15	=15
2D\	1r	1r	2.ff\	1r
2C/	.	.	.	.
.	.	.	4ee-\	.
=16	=16	=16	=16	=16
1GG	1r	1r	1dd	1r
=17	=17	=17	=17	=17
1C	1r	1r	1ee	1r
=18	=18	=18	=18	=18
*M3/1	*M3/1	*M3/1	*M3/1	*M3/1
1.FF	1.F	1.FF	1.cc	1.ff
2FF/	2F\	2FF/	2cc\	2ff\
1FF	1F	1FF	2a/	2cc\
.	.	.	2b-\	2dd\
=19	=19	=19	=19	=19
0C	0C	0C	1cc	1.ee
.	.	.	1g	.
.	.	.	.	2ee\
1GG	1G	1GG	1b-	1dd
=20	=20	=20	=20	=20
0D	0D	0D	1.a	1.ff
.	.	.	2a/	4ee\
.	.	.	.	4dd\
1AA	1A	1AA	1a	2cc\
.	.	.	.	2dd\
=21	=21	=21	=21	=21
0C	1.E	0C	2g/	1.ee
.	.	.	2f/	.
.	.	.	2g/	.
.	2F\	.	2a/	2ee\
1GG	1G	1GG	1bn	1dd
=22	=22	=22	=22	=22
0.C	0.C	0.C	0.cc	0cc
.	.	.	.	1cc
=23	=23	=23	=23	=23
0F	0.r	0.r	1r	1.cc
.	.	.	1r	.
.	.	.	.	2cc\
1F	.	.	1ff	2b-\
.	.	.	.	2a/
=24	=24	=24	=24	=24
0.BB-	0.r	0.r	1.ff	2.dd\
.	.	.	.	4ee\
.	.	.	.	2ff\
.	.	.	2ff\	2dd\
.	.	.	2ee\	2cc\
.	.	.	2dd\	2b-\
=25	=25	=25	=25	=25
0F	0.r	0.r	2.cc\	2.a/
.	.	.	4b-\	4g/
.	.	.	2cc\	2a/
.	.	.	2dd\	2b-\
1C	.	.	1ee-	1cc
=26	=26	=26	=26	=26
0.G	0.r	0.r	0.dd	1bn
.	.	.	.	1.cc
.	.	.	.	2b\
=27	=27	=27	=27	=27
*met(C)	*met(C)	*met(C)	*met(C)	*met(C)
*M4/4	*M4/4	*M4/4	*M4/4	*M4/4
1C	2r	1r	1ee	1cc
.	2C/	.	.	.
=28	=28	=28	=28	=28
2FF/	2.F\	1r	1r	1r
2F\	.	.	.	.
.	4F\	.	.	.
=29	=29	=29	=29	=29
2E\	2E\	1r	1r	1r
4D\	4D\	.	.	.
4C/	4C/	.	.	.
=30	=30	=30	=30	=30
2D\	2D\	1r	1r	1r
2AA/	2AA/	.	.	.
=31	=31	=31	=31	=31
1BB-	2.BB-/	2r	1r	1r
.	.	2BB-/	.	.
.	8AA/L	.	.	.
.	8GG/J	.	.	.
=32	=32	=32	=32	=32
2FF/	1FF	2.F\	1r	1r
2F\	.	.	.	.
.	.	4F\	.	.
=33	=33	=33	=33	=33
2G\	1r	2G\	1r	1r
2A\	.	2A\	.	.
=34	=34	=34	=34	=34
2B-\	2r	1B-	1r	1r
2BB-/	2BB-/	.	.	.
=35	=35	=35	=35	=35
1F	2.F\	1F	1r	1r
.	4F\	.	.	.
=36	=36	=36	=36	=36
2C/	2C/	1r	1r	1r
2D\	2D\	.	.	.
=37	=37	=37	=37	=37
1E-	2.E-\	1r	1r	1r
.	8D/L	.	.	.
.	8C/J	.	.	.
=38	=38	=38	=38	=38
1D	2.D\	1r	1r	1r
.	4C/	.	.	.
=39	=39	=39	=39	=39
2BBn/	2BBn/	1r	1r	1r
2C/	2C/	.	.	.
=40	=40	=40	=40	=40
1GG	1GG	1r	1r	1r
=41	=41	=41	=41	=41
2C/	1r	4r	1r	4r
.	.	4C/	.	4cc\
4E\	.	4E\	.	4cc\
4F\	.	4F\	.	8cc\L
.	.	.	.	8cc\J
=42	=42	=42	=42	=42
4.G\	1r	4G\	1r	4b-\
.	.	8G\L	.	4g/
8A\	.	8A\J	.	.
4B-\	.	4B-\	.	4dd\
4G\	.	4G\	.	4gg\
=43	=43	=43	=43	=43
2D\	1r	2D\	1r	4ff\
.	.	.	.	8dd\L
.	.	.	.	8ee\J
4AA/	.	4AA/	.	8ff\L
.	.	.	.	8gg\
4BB-/	.	4BB-/	.	8ff\
.	.	.	.	8gg\J
=44	=44	=44	=44	=44
2C/	4r	1C	4r	1ee
.	4C/	.	4cc\	.
4E\	4E\	.	4cc\	.
4F\	4F\	.	8cc\L	.
.	.	.	8cc\J	.
=45	=45	=45	=45	=45
4.G\	4G\	1r	4b-\	1r
.	8G\L	.	4g/	.
8A\	8A\J	.	.	.
4B-\	4B-\	.	4dd\	.
4G\	4G\	.	4gg\	.
=46	=46	=46	=46	=46
4.D\	4D\	1r	4ff\	1r
.	8D\L	.	4dd\	.
8E\	8E\J	.	.	.
4F\	4F\	.	4a/	.
4D\	4D\	.	8a/L	.
.	.	.	8b-/J	.
=47	=47	=47	=47	=47
2C/	1C	4r	2cc\	4r
.	.	4C/	.	4cc\
4.C/	.	4C/	2g/	4ee\
.	.	8C/L	.	8ff\L
8C/	.	8C/J	.	8ee\J
=48	=48	=48	=48	=48
4BB-/	1r	4BB-/	1r	4dd\
4GG/	.	4GG/	.	8dd\L
.	.	.	.	8ee\J
4D\	.	4D\	.	4ff\
4G\	.	4G\	.	4dd\
=49	=49	=49	=49	=49
2C/	1r	4.C/	1r	4.ee-\
.	.	8C/	.	8ff\
4.D\	.	4.D\	.	4dd\
.	.	.	.	4dd\
8E\	.	8E\	.	.
=50	=50	=50	=50	=50
2F\	2r	2F\	2r	2cc\
4BB-/	4r	2BB-/	4r	2b-\
4B-\	4B-\	.	4dd\	.
=51	=51	=51	=51	=51
4.B-\	4B-\	1r	4ff\	1r
.	8B-\L	.	4gg\	.
8B-\	8B-\J	.	.	.
4A\	4A\	.	4aa\	.
4F\	4F\	.	8a/L	.
.	.	.	8b-/J	.
=52	=52	=52	=52	=52
4A\	4A\	1r	4cc\	1r
4c\	4c\	.	4cc\	.
2G\	2G\	.	8b-\L	.
.	.	.	8a\	.
.	.	.	8b-\	.
.	.	.	8cc\J	.
=53	=53	=53	=53	=53
4F\	4F\	4r	2a/	4r
4FF/	4FF/	4F\	.	4a/
4.AA/	4.AA/	4F\	2r	4a/
.	.	8F\L	.	8a/L
8BB-/	8BB-/	8F\J	.	8a/J
=54	=54	=54	=54	=54
2C/	4C/	4E\	4r	4g/
.	8C/L	4C/	4gg\	4cc\
.	8C/J	.	.	.
2GG/	8GG/L	2G\	4gg\	8b-\L
.	8AA/	.	.	8cc\
.	8BB-/	.	8gg\L	8dd\
.	8C/J	.	8gg\J	8ee\J
=55	=55	=55	=55	=55
2D\	2D\	4r	4ff\	8ff\L
.	.	.	.	8a\
.	.	4D\	4dd\	8b-\
.	.	.	.	8cc\J
4D\	2r	4D\	4ff\	8dd\L
.	.	.	.	8ee\
8D\L	.	8D\L	8a/L	8ff\
8D\J	.	8D\J	8b-/J	8gg\J
=56	=56	=56	=56	=56
4C/	1r	4C/	4cc\	2ee\
4AA/	.	4AA/	8cc\L	.
.	.	.	8cc\J	.
4D\	.	4D\	8b-\L	2r
.	.	.	8a\	.
4G\	.	4G\	8b-\	.
.	.	.	8cc\J	.
=57	=57	=57	=57	=57
4.F\	1r	4.F\	8a/L	1r
.	.	.	8g/	.
.	.	.	8a/	.
8D\	.	8D\	8b-/J	.
4E-\	.	4E-\	4g/	.
4C/	.	4C/	4cc\	.
=58	=58	=58	=58	=58
4D\	1r	4D\	4a/	1r
8C/L	.	8C/L	4dd\	.
8BB-/J	.	8BB-/J	.	.
2F\	.	2F\	2cc\	.
=59	=59	=59	=59	=59
2BB-/	4r	2BB-/	4r	4r
.	4BB-/	.	4b-\	4dd\
4.D\	4.D\	2r	4b-\	4dd\
.	.	.	8b-\L	8dd\L
8E\	8E\	.	8b-\J	8dd\J
=60	=60	=60	=60	=60
4.F\	4F\	1r	4a/	4cc\
.	8F\L	.	4f/	4ff\
8G\	8G\J	.	.	.
4A\	4A\	.	2cc\	4ee\
4F\	4F\	.	.	4aa\
=61	=61	=61	=61	=61
2C/	2c\	4r	4r	4.gg\
.	.	4C/	4cc\	.
.	.	.	.	8gg\
4E\	2C/	4E\	4cc\	4gg\
4F\	.	4F\	8cc\L	8ff\L
.	.	.	8cc\J	8ee\J
=62	=62	=62	=62	=62
4G\	1r	4G\	4b-\	2dd\
8G\L	.	8G\L	4g/	.
8A\J	.	8A\J	.	.
4B-\	.	4B-\	4dd\	2r
4G\	.	4G\	4gg\	.
=63	=63	=63	=63	=63
2F\	4r	1F	8aa\L	4r
.	.	.	8gg\	.
.	4F\	.	8ff\	4f/
.	.	.	8ee\J	.
4F\	4F\	.	2ff\	4a/
8F\L	8F\L	.	.	4b-\
8F\J	8F\J	.	.	.
=64	=64	=64	=64	=64
4E\	4E\	1r	1r	4cc\
4C/	4C/	.	.	8cc\L
.	.	.	.	8cc\J
4G\	4G\	.	.	4b-\
4c\	4c\	.	.	8g/L
.	.	.	.	8a/J
=65	=65	=65	=65	=65
4B-\	1B-	4r	4r	8b-\L
.	.	.	.	8cc\
4BB-/	.	4BB-/	4dd\	8dd\
.	.	.	.	8ee\J
4.D\	.	4.D\	4dd\	4ff\
.	.	.	8dd\L	8f/L
8E\	.	8E\	8dd\J	8g/J
=66	=66	=66	=66	=66
2F\	4r	4F\	4cc\	8a/L
.	.	.	.	8b-/J
.	2F\	8F\L	4a/	2cc\
.	.	8G\J	.	.
2FF/	.	4.A\	4cc\	.
.	4FF/	.	4ff\	4a/
.	.	8F\	.	.
=67	=67	=67	=67	=67
1C	1C	4C/	4ee\	1cc
.	.	2F\	4aa\	.
.	.	.	2gg\	.
.	.	4E\	.	.
=68	=68	=68	=68	=68
1FF	1FF	1F	1ff	1cc
=69	=69	=69	=69	=69
1F	1r	1r	2r	1r
.	.	.	[2cc\	.
=70	=70	=70	=70	=70
2A\	1r	1r	4cc\]	2r
.	.	.	4cc\	.
2AA/	.	.	2cc#\	[2aa\
=71	=71	=71	=71	=71
2BB-/	1r	1r	2dd\	4aa\]
.	.	.	.	8gg\L
.	.	.	.	8ff\J
2BBn/	.	.	4r	2gg\
.	.	.	[4dd\	.
=72	=72	=72	=72	=72
2C/	1r	1r	4dd\]	2ee\
.	.	.	8cc#\L	.
.	.	.	8bn\J	.
2C/	.	.	2ccn\	[2ee-\
=73	=73	=73	=73	=73
2.FF/	1r	1r	[2a/	4ee-\]
.	.	.	.	8dd\L
.	.	.	.	8cc\J
.	.	.	8a/L]	[2dd\
.	.	.	8b-/J	.
4AA/	.	.	[4cc\	.
=74	=74	=74	=74	=74
2GG/	1r	1r	4cc\]	4dd\]
.	.	.	4bn\	4dd\
2C/	.	.	[4cc\	2cc\
.	.	.	16cc/LL]	.
.	.	.	16b-/	.
.	.	.	16a/	.
.	.	.	16g/JJ	.
=75	=75	=75	=75	=75
2F\	1r	1r	2a/	4r
.	.	.	.	[4ff\
[2D\	.	.	[4aa\	16ff\LL]
.	.	.	.	16ee\
.	.	.	.	16dd\
.	.	.	.	16cc\JJ
.	.	.	16aa\LL]	[4dd\
.	.	.	16gg\	.
.	.	.	16ff\	.
.	.	.	16ee\JJ	.
=76	=76	=76	=76	=76
2D\]	1r	1r	[2ff\	16dd\LL]
.	.	.	.	16a\
.	.	.	.	16b-\
.	.	.	.	16cc\JJ
.	.	.	.	16dd\LL
.	.	.	.	16cc\
.	.	.	.	16cc\
.	.	.	.	16bn\JJ
2AA/	.	.	16ff\LL]	[2cc\
.	.	.	16ee\	.
.	.	.	16ff\	.
.	.	.	16gg\JJ	.
.	.	.	16aa\LL	.
.	.	.	16gg\	.
.	.	.	16gg\	.
.	.	.	16ff#\JJ	.
=77	=77	=77	=77	=77
2E\	1r	1r	[2gg\	8cc\L]
.	.	.	.	16dd\L
.	.	.	.	16ee\JJ
.	.	.	.	8.dd\L
.	.	.	.	16cc#\Jk
2BBn/	.	.	8gg\L]	4.dd\
.	.	.	16ff#\L	.
.	.	.	16gg\JJ	.
.	.	.	[4dd\	.
.	.	.	.	16ccn\LL
.	.	.	.	16dd\JJ
=78	=78	=78	=78	=78
2D\	1r	1r	8dd\L]	4.a/
.	.	.	16cc\L	.
.	.	.	16dd\JJ	.
.	.	.	4.a/	.
.	.	.	.	8bn\
[2AA/	.	.	.	8cc#\L
.	.	.	8bn\	8dd\
.	.	.	8cc#\L	8ee\
.	.	.	8dd\J	8ff\J
=79	=79	=79	=79	=79
2AA/]	1r	1r	8ee\L	8cc#\L
.	.	.	8ff\	8aa\
.	.	.	8cc#\	8ee\
.	.	.	8aa\J	8ff\J
2AA/	.	.	8ee\L	8cc#\L
.	.	.	8ff\	8dd\
.	.	.	8cc#\	8ee\
.	.	.	8dd\J	8ff\J
=80	=80	=80	=80	=80
2EE/	1r	1r	8ee\L	4.gg\
.	.	.	8bn\J	.
.	.	.	2cc\	.
.	.	.	.	16ff\LL
.	.	.	.	16ee\JJ
2GG/	.	.	.	2dd\
.	.	.	4b\	.
=81	=81	=81	=81	=81
*M3/1	*M3/1	*M3/1	*M3/1	*M3/1
0C	1r	1.C	0.cc	0.cc
.	1r	.	.	.
.	.	2D\	.	.
1C	1C	1E	.	.
=82	=82	=82	=82	=82
1.FF	1.FF	0F	0.r	0.r
2FF/	2FF/	.	.	.
2GG/	2GG/	1r	.	.
2AA/	2AA/	.	.	.
=83	=83	=83	=83	=83
0BB-	0BB-	1r	1.b-	1.dd
.	.	1r	.	.
.	.	.	2b-\	2dd\
1FF	1FF	1F	2a/	2cc\
.	.	.	2b-\	2dd\
=84	=84	=84	=84	=84
1.C	0C	1.C	1.cc	2.ee-\
.	.	.	.	4dd\
.	.	.	.	2ee-\
2C/	.	2C/	2cc\	2ff\
2D\	1r	2D\	1b-	1dd
2E\	.	2E\	.	.
=85	=85	=85	=85	=85
0.F	0.r	0F	0a	0cc
.	.	1FF	1aa	1ff
=86	=86	=86	=86	=86
0C	0.r	0C	2.gg\	2.ee\
.	.	.	4ff\	4dd\
.	.	.	2gg\	2ee\
.	.	.	2aa\	2ff\
1D	.	1r	2ff\	2dd\
.	.	.	2gg\	2ee\
=87	=87	=87	=87	=87
0AA	0.r	0.r	0ee	0cc#
1D	.	.	1dd	1dd
=88	=88	=88	=88	=88
0C	0.r	0.r	2.gg\	2.ee\
.	.	.	4ff\	4dd\
.	.	.	2gg\	2ee\
.	.	.	2aa\	2ff\
1D	.	.	2ff\	2dd\
.	.	.	2gg\	2ee\
=89	=89	=89	=89	=89
0AA	1r	0.r	0ee	0cc#
.	1r	.	.	.
1D	1D	.	1dd	1dd
=90	=90	=90	=90	=90
1.AA	1.AA	1r	0.r	0.r
.	.	1r	.	.
2AA/	2AA/	.	.	.
1BB-	1BB-	1B-	.	.
=91	=91	=91	=91	=91
0F	0F	1.F	0.r	1r
.	.	.	.	1r
.	.	2F\	.	.
1G	1r	2G\	.	1b-
.	.	2A\	.	.
=92	=92	=92	=92	=92
1B-	0.r	1B-	1r	1.f
1A	.	1A	1r	.
.	.	.	.	2f/
1c	.	1c	1gg	2g/
.	.	.	.	2a/
=93	=93	=93	=93	=93
1B-	1r	1B-	1.dd	0b-
1G	1r	1G	.	.
.	.	.	2dd\	.
1C	1C	1C	2ee\	1g
.	.	.	2ff\	.
=94	=94	=94	=94	=94
0GG	1.GG	0G	2gg\	1.b-
.	.	.	2g/	.
.	.	.	1b-	.
.	2GG/	.	.	2b-\
1AA	2AA/	1F	1a	2cc\
.	2BB-/	.	.	2dd\
=95	=95	=95	=95	=95
0C	0C	1.C	1.g	1.ee-
.	.	2C/	2a/	2ee-\
1BB-	1BB-	2D\	2b-\	1dd
.	.	2E\	2g/	.
=96	=96	=96	=96	=96
1F	1F	0F	2.a/	1cc
.	.	.	4g/	.
1FF	1FF	.	2a/	1ff
.	.	.	2b-\	.
1C	1C	1C	1g	1ee
=97	=97	=97	=97	=97
0.FF	0FF	0F	0a	0ff
.	1r	1r	1r	1r
=98	=98	=98	=98	=98
0C	0C	1.C	1.g	1.ee-
.	.	2C/	2a/	2ee-\
1BB-	1BB-	2D\	2b-\	1dd
.	.	2E\	2g/	.
=99	=99	=99	=99	=99
1F	1F	0F	2.a/	1cc
.	.	.	4g/	.
1FF	1FF	.	2a/	1ff
.	.	.	2b-\	.
1C	1C	1C	1g	1ee
=100	=100	=100	=100	=100
0.FF	0FF	0F	0a	0ff
.	1r	1r	1r	1r
=101	=101	=101	=101	=101
*met(C)	*met(C)	*met(C)	*met(C)	*met(C)
*M4/4	*M4/4	*M4/4	*M4/4	*M4/4
4r	4r	4r	4r	4r
2E-\	2E-\	2E-\	2ee-\	2gg\
4E-\	4E-\	4E-\	4ee-\	4gg\
=102	=102	=102	=102	=102
1BBn	2BBn/	2G\	2dd\	2.gg\
.	[2G\	2BBn/	[2dd\	.
.	.	.	.	4ff\
=103	=103	=103	=103	=103
1C	4G\]	1C	4dd\]	2ee-\
.	4C/	.	8cc\L	.
.	.	.	8b-\J	.
.	2C/	.	2cc\	[2ee-\
=104	=104	=104	=104	=104
1FF	1F	1FF	4a/	4ee-\]
.	.	.	2b-\	4dd-\
.	.	.	.	2cc\
.	.	.	4a/	.
=105	=105	=105	=105	=105
1BB-	1BB-	1BB-	1b-	1b-
=106	=106	=106	=106	=106
*clefC3	*	*	*	*
2g\	1r	1r	2r	4gg\
.	.	.	.	8dd\L
.	.	.	.	8gg\J
2d\	.	.	4dd\	8ff\L
.	.	.	.	8dd\
.	.	.	8a\L	8ff\
.	.	.	8dd\J	8ff\J
=107	=107	=107	=107	=107
2A/	1r	2r	8cc\L	8ee\L
.	.	.	8a\	16cc\L
.	.	.	.	16dd\JJ
.	.	.	8cc\	8ee\L
.	.	.	8cc\J	8ff#\J
*clefF4	*	*	*	*
4G\	.	4G\	2b-\	2gg\
8D\L	.	8D\L	.	.
8G\J	.	8G\J	.	.
=108	=108	=108	=108	=108
4.F\	1r	8F\L	2a/	2r
.	.	8D\	.	.
.	.	8F\	.	.
8F\	.	8F\J	.	.
4E\	.	8E\L	2r	8r
.	.	8C\	.	8g/L
4C/	.	8E\	.	8g/
.	.	8F\J	.	8a/J
=109	=109	=109	=109	=109
2GG/	4G\	2G\	1r	8b-/L
.	.	.	.	16g/L
.	.	.	.	16a/JJ
.	8D\L	.	.	8b-\L
.	8G\J	.	.	16cc\L
.	.	.	.	16b-\JJ
4.D\	8F\L	2D\	.	2a/
.	8D\	.	.	.
.	8F\	.	.	.
8F\	8F\J	.	.	.
=110	=110	=110	=110	=110
2C/	8E\L	1r	4cc\	2r
.	8C\	.	.	.
.	8E\	.	8g/L	.
.	8F\J	.	8cc/J	.
2GG/	2G\	.	8b-/L	8r
.	.	.	8g/	8dd\L
.	.	.	8b-/	8dd\
.	.	.	8b-/J	8ee\J
=111	=111	=111	=111	=111
2D\	2D\	2r	8a/L	8ff\L
.	.	.	8f/	16dd\L
.	.	.	.	16ee\JJ
.	.	.	8a/	8ff\L
.	.	.	8b-/J	16gg\L
.	.	.	.	16ff\JJ
2C/	2C/	4c\	2cc\	2ee\
.	.	8G\L	.	.
.	.	8c\J	.	.
=112	=112	=112	=112	=112
4.G\	1r	8B-\L	2r	2dd\
.	.	8G\	.	.
.	.	8B-\	.	.
8B-\	.	8B-\J	.	.
2F\	.	8A\L	8r	2r
.	.	8F\	8cc\L	.
.	.	8A\	8cc\	.
.	.	8B-\J	8dd\J	.
=113	=113	=113	=113	=113
4C/	8r	2c\	8ee-\L	1r
.	8C/L	.	16cc\L	.
.	.	.	16dd\JJ	.
8C/L	8C/	.	8ee-\L	.
8D/J	8D/J	.	16dd\L	.
.	.	.	16cc\JJ	.
8E-/L	8E-/L	2r	4.b-\	.
8GG/	8GG/	.	.	.
8GG/	8GG/	.	.	.
8AA/J	8AA/J	.	8cc\	.
=114	=114	=114	=114	=114
2BB-/	8BB-/L	1r	4dd\	2r
.	8GG/	.	.	.
.	8BB-/	.	4gg\	.
.	8C/J	.	.	.
2AA/	4.AA/	.	4gg\	4cc\
.	.	.	4ff#\	8a\L
.	8AA/	.	.	8dd\J
=115	=115	=115	=115	=115
2GG/	2GG/	1r	4gg\	8b-/L
.	.	.	.	16g/L
.	.	.	.	16a/JJ
.	.	.	8dd\L	8b-\L
.	.	.	8gg\J	16cc\L
.	.	.	.	16b-\JJ
2D\	2D\	.	8ff\L	2a/
.	.	.	16dd\L	.
.	.	.	16ee\JJ	.
.	.	.	8ff\L	.
.	.	.	16gg\L	.
.	.	.	16ff\JJ	.
=116	=116	=116	=116	=116
2C/	8r	1r	4.ee\	1r
.	8c\L	.	.	.
.	8G\	.	.	.
.	8c\J	.	16ff\LL	.
.	.	.	16ee\JJ	.
8BB-/L	8B-\L	.	2dd\	.
8D/	8D\	.	.	.
8D/	8D\	.	.	.
8E/J	8E\J	.	.	.
=117	=117	=117	=117	=117
4F\	2F\	8r	1r	4cc\
.	.	8AA/L	.	.
8AA/L	.	8AA/	.	8a\L
8BB-/J	.	8BB-/J	.	8dd\J
2C/	8r	2C/	.	8cc/L
.	8E\L	.	.	8g/
.	8E\	.	.	8g/
.	8F\J	.	.	8a/J
=118	=118	=118	=118	=118
4.G\	2G\	8r	1r	2b-\
.	.	8G\L	.	.
.	.	8G\	.	.
8A\	.	8A\J	.	.
8B-\L	2r	8B-\L	.	2r
8G\J	.	16G\L	.	.
.	.	16A\JJ	.	.
4B-\	.	8B-\L	.	.
.	.	8c\J	.	.
=119	=119	=119	=119	=119
4A\	8r	2A\	4cc\	1r
.	8AA/L	.	.	.
4AA/	8AA/	.	8a\L	.
.	8BB-/J	.	8dd\J	.
4C/	4C/	2r	8cc/L	.
.	.	.	16g/L	.
.	.	.	16a/JJ	.
4EE/	4EE/	.	8b-\L	.
.	.	.	16cc\L	.
.	.	.	16b-\JJ	.
=120	=120	=120	=120	=120
1FF	1FF	2r	8a\L	8r
.	.	.	8ff\	8a/L
.	.	.	8cc\	8a/
.	.	.	8dd\J	8b-/J
.	.	4F\	4a/	8cc/L
.	.	.	.	16f/L
.	.	.	.	16g/JJ
.	.	8C\L	4ff\	8a/L
.	.	8F\J	.	16b-/L
.	.	.	.	16a/JJ
=121	=121	=121	=121	=121
1C	1C	8E\L	4.gg\	4.g/
.	.	16C\L	.	.
.	.	16D\JJ	.	.
.	.	8E\L	.	.
.	.	8C\J	8ff\	16a/LL
.	.	.	.	16b-/JJ
.	.	4c\	2ee\	2cc\
.	.	4C/	.	.
=122	=122	=122	=122	=122
0FF	0FF	0F	0ff	0a
==	==	==	==	==
*-	*-	*-	*-	*-
!!!ENC: Craig Stuart Sapp
!!!END: 2004/12/14/
